X:1
T:Christ Lag in Todes Banden
T:Christ Lag in Todes Banden
T:Johann Walther, 1524
T:Public Domain Courtesy of the Cyber Hymnal™
C:Johann Walther, 1524
Z:Public Domain
Z:Courtesy of the Cyber Hymnal™
%%score ( 1 2 ) ( 3 4 )
L:1/8
Q:1/4=108
M:4/4
K:C
V:1 treble 
V:2 treble 
V:3 bass 
V:4 bass 
V:1
|: [EA]4 [EG]2 [CA]2 | [Ec]2 [Gd]2 c2 B2 | [^CA]2 z [FA] [DF]2 [EG]2 | [FA]2 (GF) [^CE]2 D2 :| %4
 D2 [DF]2 [DG]2 D2 | [B,D]2 [DG]2 [^CA]2 z [EA] | [Fd]2 [Ec]2 [Gd]2 [E-e]2 | %7
 [Ec]2 [EB]2 [^CA]2 z [CA] | [Ec]2 [DA]2 [Cc]2 [EG]2 | [DF]2 [^CE]2 D4 | [FA]2 (GF) [^CE]2 D2 |] %11
V:2
|: x8 | x4 E4 | x8 | x2 D2 x D2 x :| D2 x2 (_B,C) x2 | x8 | x8 | x8 | x8 | x4 D4 | x2 D2 x D2 x |] %11
V:3
|: [A,,C]4 [E,B,]2 [F,A,]2 | [C,G,]2 [G,,B,]2 [A,,A,]2 [E,^G,]2 | %2
 [A,,A,]2 z [F,C] [_B,,_B,]2 [G,,B,]2 | [F,,C]2 (_B,A,) [A,,A,]2 [D,^F,]2 :| %4
 [D,A,]2 [_B,,_B,]2 [G,,C]2 G,2 | [D,A,]2 [_B,,D,]2 [A,,E,]2 z [A,C] | %6
 [D,A,]2 A,2 [G,B,]2 [C,G,]2 | z [E,^G,]2 [A,,A,]2 z F, x | [C,G,]2 [D,F,]2 [A,,E,]2 [C,C]2 | %9
 A,2 [A,,A,]2 [D,^F,]4 | [F,,C]2 (_B,A,) [A,,A,]2 [D,^F,]2 |] %11
V:4
|: x8 | x8 | x8 | x2 G,,2 x4 :| x6 G,2 | x8 | x2 A,2 x4 | A,2 D, x4 F, | x8 | (^F,,G,,) x6 | %10
 x2 G,,2 x4 |] %11

